X:1
T:James Gibb editions
T:Psalm 92.2 (Becker) - Schütz
%%score [ ( 1 2 ) ( 3 4 ) ]
L:1/8
Q:1/4=98
M:2/2
K:C
V:1 treble nm="Soprano Alto"
V:2 treble 
V:3 bass nm="Tenor Bass"
V:4 bass 
V:1
"^Psalm 92,  version 2, SWV 190""^Heinrich Schütz\n(1585-1672)""^Cornelius Becker\n(1561-1604)" G4 G2 G2 | %1
w: Es ist für-|
 A4 c4 | B2 d2 c4 | A4 c2 d2 | e4 d4 | f2 e2 d4 |[M:2/2] d4 e2 c2 | c2 B2 A4 | G4 A2 B2 | c4 A4 | %10
w: wahr ein|kost- lich Ding,|wenn man dem|Her- ren|dankt und singt,|zu Lob sein'm|heil- gen Nam'n,|des Mor- gens|Got- tes|
 B2 c2 d4 | B4 c2 d2 | e4 c4 | B4 A4 | G8 |] %15
w: Gnad wird kund,|des Nachts man|sei- ne|Wahr- heit|rühmt.|
V:2
 D4 E2 E2 | F4 E4 | G2 G2 E4 | F4 F2 F2 | G4 G4 | A2 A2 ^F4 |[M:2/2] G4 G2 F2 | F2 D2 D4 | %8
 B,4 D2 D2 | E4 D4 | D2 G2 ^F4 | E4 E2 G2 | G4 F4 | (D2 G4) ^F2 | G8 |] %15
V:3
 B,4 B,2 C2 | C4 A,4 | D2 B,2 C4 | C4 A,2 A,2 | C4 B,4 | D2 ^C2 D4 |[M:2/2] B,4 C2 A,2 | %7
 A,2 G,2 ^F,4 | G,4 ^F,2 G,2 | G,4 ^F,4 | G,2 G,2 A,4 | %11
"^2. Auf zehen Saiten Psalterspiel, die Harfen gut ich brauchen will,\nsingen mit frohem Mut, die Werk des Herren weit bekannt\nrühmen die G'schäfte seiner Hand.\n\n3. Herr, wie sind deine Werk so groß, tief deine G'danken ohne Maß!\nEin Törichter glaubts nicht, der Narr, der gibt kein Achtung drauf ,\nin' Tag lebt hin der größte Hauf.\n\n4. Der Gottlos grünt wohl eine Zeit, gleichwie das Gras auf grüner Heid,\ner steht in voller Blüt, bis ihn vertilget mächtiglich\ndein Hand immer und ewglich.\n\n5. Du, Herr, der Höchste bist allein und wirst es auch wohl ewig sein,\nsieh an, Herr, deine Feind, die Feinde kommen um zur Stund,\ndie Übeltäter gehn zu Grund.\n\n7. Den G'rechten wird man fröhlich schaun recht günen wie ein Palmenbaum,\nwie Ced'rn auf Libanon, gepflanzet in dem Haus des Herrn,\nin sein Vorhöfen grünen werd'n." ^G,4 A,2 B,2 | %12
 C4 A,4 | (B,2 D4) D2 | D8 |] %15
V:4
 G,4 E,2 C,2 | F,4 A,4 | G,2 G,2 C,4 | F,4 F,2 D,2 | C,4 G,4 | D,2 A,2 D,4 |[M:2/2] G,4 C,2 F,2 | %7
 F,2 G,2 D,4 | E,4 D,2 G,2 | C,4 D,4 | G,2 E,2 D,4 | E,4 A,2 =G,2 | C4 F,4 | G,4 D,4 | G,8 |] %15

